X: 3238
T: Mrs ROSS
%R: jig
B: James Kerr "Merry Melodies" v.3 p.27 #238
Z: 2016 John Chambers <jc:trillian.mit.edu>
M: 6/8
L: 1/8
K: D
|:\
d3  cBA | B3  AGF | G2B AGF | BEE E3 |\
d3  cBA | B3  AGF | GFG AEG | FDD D2 :|
|:\
DFA DFA | dcd AFD | GBG FAF | BGE E3 |\
DFA DFA | dcd AFD | GFG AEG | FDD D2 :|

%%sep 1 1 500
%%sep 1 1 500

